X: 1
T: Paddy Canny's
M: 6/8
L: 1/8
R: jig
K: Gmaj
|:B2E EFE|DED DB,D|B2E EFE|~c3 B2A|
B2E EFE|DED DB,D|EFG AFD|~G3 G2A:|
|:~G3 BGG|dGG BGG|~G3 BAG|~c3 B2A|
~G3 BGG|dGG BGG|d2d ded|~c3 B2A:|
